X:62
T:Celebrated Set Of Quadrilles No.2. Le4.062, A
T:Cockleshells,aka. Le4.062
T:Donkey Riding,aka. Le4.062
T:Lass of Livingstone,aka. Le4.062
T:High Caul'd Cap,aka. Le4.062
T:Hielan Laddie,aka. Le4.062
B:L.Leadley MS#4 c1850
Z:Village Music Project, 2016 Steve Mansfield
M:2/4
L:1/8
Q:2/4=60
N:* a2 in Mss
N: Key of D in Mss; should perhaps be A?
K:D
E | A>Bcc | dB c2 | cBB A/B/ | cBBc |
A>Bcc | d>BcB | AF F/A/G/B/ |1 AFF :|2 Ac/e/ "*" a ||
e | faea | d/c/B/A/ c2 | cBB A/B/ | cBBe |
faea | d/c/B/A/ c>B | AFFG | AFF !D.C.! |]

